Gruvbox-Plus-Dark/devices/scalable/media-flash-smart-media.svg

<svg width="256" height="256" style="isolation:isolate" version="1.1" viewBox="0 0 256 256" xmlns="http://www.w3.org/2000/svg">
  <defs>
    <filter id="a-3" x="-.04224" y="-.0452" width="1.084" height="1.108" color-interpolation-filters="sRGB">
      <feGaussianBlur in="SourceGraphic" stdDeviation="4.294"/>
      <feOffset dy="4" result="pf_100_offsetBlur"/>
      <feFlood flood-opacity=".4"/>
      <feComposite in2="pf_100_offsetBlur" operator="in" result="pf_100_dropShadow"/>
      <feBlend in="SourceGraphic" in2="pf_100_dropShadow"/>
    </filter>
    <linearGradient id="b-5" x1=".5002" x2=".5002" y2="1" gradientTransform="matrix(244,0,0,228,5.981,12.12)" gradientUnits="userSpaceOnUse">
      <stop stop-color="#83a598" offset="0"/>
      <stop stop-color="#458588" offset="1"/>
    </linearGradient>
    <linearGradient id="linearGradient31" x1=".5002" x2=".5002" y2="1" gradientTransform="matrix(244,0,0,228,5.986,12)" gradientUnits="userSpaceOnUse">
      <stop stop-color="#ebdbb2" offset="0"/>
      <stop stop-color="#ebdbb2" stop-opacity=".09804" offset=".1"/>
      <stop stop-color="#282828" stop-opacity=".1" offset=".9"/>
      <stop stop-color="#282828" stop-opacity=".4" offset="1"/>
    </linearGradient>
  </defs>
  <g transform="translate(9.09e-6 -.12)" filter="url(#a-3)" style="isolation:isolate">
    <path d="m165 12.12c72 0 85 15 85 87v56c0 70-13 85-85 85h-74c-72 0-85-15-85-85v-56c0-72 13-87 85-87z" fill="url(#b-5)"/>
  </g>
  <g transform="translate(9.09e-6 -.12)" opacity=".5" style="isolation:isolate">
    <path transform="translate(-.004996 .116)" d="m91 12c-72 0-85 15-85 87v56c0 70 13 85 85 85h74c72 0 85-15 85-85v-56c0-72-13-87-85-87zm0 4h74c68 0 80 15 80 83v56c0 66-12 81-80 81h-74c-68 0-80-15-80-81v-56c0-68 12-83 80-83z" fill="url(#linearGradient31)" opacity="1"/>
  </g>
  <g style="isolation:isolate">
    <linearGradient id="_lgradient_106" x2="0" y2="1" gradientTransform="matrix(8.365 0 0 25.1 69.44 85.85)" gradientUnits="userSpaceOnUse">
      <stop stop-color="#fabd2f" offset="0"/>
      <stop stop-color="#fabd2f" offset=".5"/>
      <stop stop-color="#fabd2f" offset="1"/>
    </linearGradient>
    <path d="m72.23 85.85c-1.544 0-2.788 1.244-2.788 2.789v19.52c0 1.544 1.244 2.788 2.788 2.788h5.577v-25.1h-5.577z" fill="url(#_lgradient_106)"/>
    <linearGradient id="_lgradient_107" x2="0" y2="1" gradientTransform="matrix(117.1 0 0 145 69.44 53.5)" gradientUnits="userSpaceOnUse">
      <stop stop-color="#665c54" offset="0"/>
      <stop stop-color="#3c3836" offset="1"/>
    </linearGradient>
    <path d="m69.44 59.38v33.16h5.577v36.25h-4.217s-1.288-0.025-1.36 1.709v60.75c0.222 6.96 6.112 7.252 6.112 7.252h104.5s6.526 0.266 6.526-6.123v-77.01c-2e-3 -0.566-0.558-0.519-0.558-0.519h-2.23v-13.94h1.945s0.862 8e-3 0.843-0.859v-26.2c0.023-0.889-0.524-1.353-0.524-1.353l-18.59-18.59c-0.31-0.433-1.087-0.403-1.087-0.403h-91.36s-5.555 0.187-5.555 5.881z" fill="url(#_lgradient_107)"/>
    <linearGradient id="_lgradient_108" x2="0" y2="1" gradientTransform="matrix(99.69 0 0 105.8 78.76 75.91)" gradientUnits="userSpaceOnUse">
      <stop stop-color="#ebdbb2" offset="0"/>
      <stop stop-color="#d5c4a1" offset="1"/>
    </linearGradient>
    <path d="m82.76 75.91h91.68c2.208 0 4 1.793 4 4v97.76c0 2.207-1.792 4-4 4h-91.68c-2.208 0-4-1.793-4-4v-97.76c0-2.207 1.792-4 4-4z" fill="url(#_lgradient_108)"/>
    <linearGradient id="_lgradient_109" x2="0" y2="1" gradientTransform="matrix(99.68 0 0 23.35 78.77 75.88)" gradientUnits="userSpaceOnUse">
      <stop stop-color="#fb4934" offset="0"/>
      <stop stop-color="#cc241d" offset="1"/>
    </linearGradient>
    <path d="m82.38 75.88c-2 0-3.611 1.611-3.611 3.611v15.89c0 0.031 0.011 0.061 0.011 0.092h-0.011v3.758h99.68v-3.758h-0.012c1e-3 -0.031 0.012-0.061 0.012-0.092v-15.89c0-2-1.611-3.611-3.611-3.611h-92.46z" fill="url(#_lgradient_109)"/>
    <path d="m171.5 93.31-4.052-11.16-4.052 11.16h8.104z" fill="#ebdbb2" fill-rule="evenodd"/>
    <path d="m126.2 112.3h3.5c11.04 0 20 8.962 20 20v3.5c0 11.04-8.962 20-20 20h-3.5c-11.04 0-20-8.962-20-20v-3.5c0-11.04 8.962-20 20-20z" fill="#bdae93"/>
  </g>
</svg>

<svg xmlns="http://www.w3.org/2000/svg" style="isolation:isolate" width="256" height="256" viewBox="0 0 256 256">
 <defs>
  <clipPath id="_clipPath_SScluqkui8NP1e3htuF2SwkLiOYy1Obq">
   <rect width="256" height="256"/>
  </clipPath>
 </defs>
 <g clip-path="url(#_clipPath_SScluqkui8NP1e3htuF2SwkLiOYy1Obq)">
  <defs>
   <filter id="LzeNWtw6EflW4CwI8JkbRQjJvcFBFWAx" width="400%" height="400%" x="-200%" y="-200%" color-interpolation-filters="sRGB" filterUnits="objectBoundingBox">
    <feGaussianBlur xmlns="http://www.w3.org/2000/svg" in="SourceGraphic" stdDeviation="4.294"/>
    <feOffset xmlns="http://www.w3.org/2000/svg" dx="0" dy="4" result="pf_100_offsetBlur"/>
    <feFlood xmlns="http://www.w3.org/2000/svg" flood-opacity=".4"/>
    <feComposite xmlns="http://www.w3.org/2000/svg" in2="pf_100_offsetBlur" operator="in" result="pf_100_dropShadow"/>
    <feBlend xmlns="http://www.w3.org/2000/svg" in="SourceGraphic" in2="pf_100_dropShadow" mode="normal"/>
   </filter>
  </defs>
  <g filter="url(#LzeNWtw6EflW4CwI8JkbRQjJvcFBFWAx)">
   <linearGradient id="_lgradient_104" x1=".5" x2=".5" y1="0" y2="1" gradientTransform="matrix(244.648,0,0,228.338,5.68,11.95)" gradientUnits="userSpaceOnUse">
    <stop offset="0%" style="stop-color:#83a598"/>
    <stop offset="100%" style="stop-color:#458588"/>
   </linearGradient>
   <path fill="url(#_lgradient_104)" d="M 165.689 11.95 C 239.745 11.95 250.328 22.507 250.328 96.494 L 250.328 155.745 C 250.328 229.731 239.745 240.288 165.689 240.288 L 90.319 240.288 C 16.264 240.288 5.68 229.731 5.68 155.745 L 5.68 96.494 C 5.68 22.507 16.264 11.95 90.319 11.95 L 165.689 11.95 Z"/>
  </g>
  <g opacity=".4">
   <linearGradient id="_lgradient_105" x1=".517" x2=".517" y1="0" y2="1" gradientTransform="matrix(244.65,0,0,228.34,5.68,11.95)" gradientUnits="userSpaceOnUse">
    <stop offset="0%" style="stop-color:#ebdbb2"/>
    <stop offset="12.5%" stop-opacity=".098" style="stop-color:#ebdbb2"/>
    <stop offset="92.5%" stop-opacity=".098" style="stop-color:#282828"/>
    <stop offset="100%" stop-opacity=".498" style="stop-color:#282828"/>
   </linearGradient>
   <path fill="url(#_lgradient_105)" fill-rule="evenodd" d="M 165.068 11.951 C 169.396 11.941 173.724 11.991 178.052 12.089 C 181.927 12.167 185.803 12.315 189.678 12.541 C 193.131 12.737 196.583 13.022 200.026 13.395 C 203.085 13.73 206.144 14.181 209.174 14.741 C 211.889 15.243 214.574 15.881 217.22 16.657 C 219.62 17.355 221.971 18.219 224.243 19.241 C 226.358 20.184 228.384 21.304 230.302 22.591 C 232.142 23.829 233.863 25.244 235.437 26.806 C 237.001 28.378 238.417 30.088 239.656 31.925 C 240.945 33.841 242.066 35.865 243.02 37.967 C 244.043 40.247 244.909 42.585 245.617 44.972 C 246.394 47.615 247.034 50.297 247.535 53.009 C 248.096 56.035 248.548 59.081 248.883 62.136 C 249.257 65.575 249.542 69.014 249.739 72.462 C 249.965 76.323 250.112 80.194 250.201 84.055 C 250.289 88.378 250.339 92.701 250.329 97.014 L 250.329 155.226 C 250.339 159.549 250.289 163.862 250.201 168.185 C 250.112 172.056 249.965 175.917 249.739 179.778 C 249.542 183.226 249.257 186.675 248.883 190.104 C 248.548 193.159 248.096 196.215 247.535 199.241 C 247.034 201.943 246.394 204.625 245.617 207.268 C 244.909 209.655 244.043 212.003 243.02 214.273 C 242.066 216.385 240.945 218.399 239.656 220.315 C 238.417 222.152 237.001 223.872 235.437 225.434 C 233.863 226.996 232.142 228.411 230.302 229.649 C 228.384 230.936 226.358 232.056 224.243 232.999 C 221.971 234.021 219.62 234.885 217.22 235.593 C 214.574 236.369 211.889 237.007 209.174 237.499 C 206.144 238.068 203.085 238.51 200.026 238.845 C 196.583 239.218 193.131 239.503 189.678 239.699 C 185.803 239.925 181.927 240.073 178.052 240.161 C 173.724 240.249 169.396 240.299 165.068 240.289 L 90.942 240.289 C 86.614 240.299 82.286 240.249 77.958 240.161 C 74.083 240.073 70.207 239.925 66.332 239.699 C 62.879 239.503 59.427 239.218 55.984 238.845 C 52.925 238.51 49.866 238.068 46.836 237.499 C 44.121 237.007 41.436 236.369 38.79 235.593 C 36.39 234.885 34.039 234.021 31.767 232.999 C 29.652 232.056 27.626 230.936 25.708 229.649 C 23.868 228.411 22.147 226.996 20.573 225.434 C 19.009 223.872 17.593 222.152 16.354 220.315 C 15.065 218.399 13.944 216.385 12.99 214.273 C 11.967 212.003 11.101 209.655 10.393 207.268 C 9.616 204.625 8.976 201.943 8.475 199.241 C 7.914 196.215 7.462 193.159 7.127 190.104 C 6.753 186.675 6.468 183.226 6.271 179.778 C 6.045 175.917 5.898 172.056 5.809 168.185 C 5.721 163.862 5.671 159.549 5.681 155.226 L 5.681 97.014 C 5.671 92.701 5.721 88.378 5.809 84.055 C 5.898 80.194 6.045 76.323 6.271 72.462 C 6.468 69.014 6.753 65.575 7.127 62.136 C 7.462 59.081 7.914 56.035 8.475 53.009 C 8.976 50.297 9.616 47.615 10.393 44.972 C 11.101 42.585 11.967 40.247 12.99 37.967 C 13.944 35.865 15.065 33.841 16.354 31.925 C 17.593 30.088 19.009 28.378 20.573 26.806 C 22.147 25.244 23.868 23.829 25.708 22.591 C 27.626 21.304 29.652 20.184 31.767 19.241 C 34.039 18.219 36.39 17.355 38.79 16.657 C 41.436 15.881 44.121 15.243 46.836 14.741 C 49.866 14.181 52.925 13.73 55.984 13.395 C 59.427 13.022 62.879 12.737 66.332 12.541 C 70.207 12.315 74.083 12.167 77.958 12.089 C 82.286 11.991 86.614 11.941 90.942 11.951 L 165.068 11.951 Z M 165.078 15.96 C 169.376 15.95 173.675 15.999 177.973 16.087 C 181.8 16.176 185.626 16.323 189.452 16.539 C 192.836 16.736 196.219 17.011 199.583 17.384 C 202.554 17.699 205.515 18.131 208.446 18.681 C 211.023 19.153 213.58 19.762 216.099 20.499 C 218.322 21.147 220.495 21.953 222.6 22.896 C 224.509 23.751 226.338 24.763 228.069 25.922 C 229.692 27.013 231.207 28.26 232.594 29.646 C 233.981 31.031 235.23 32.544 236.332 34.165 C 237.492 35.894 238.506 37.712 239.361 39.608 C 240.306 41.72 241.112 43.892 241.761 46.102 C 242.509 48.617 243.109 51.162 243.591 53.736 C 244.132 56.664 244.565 59.611 244.889 62.578 C 245.263 65.938 245.539 69.308 245.735 72.688 C 245.952 76.51 246.109 80.322 246.188 84.144 C 246.276 88.437 246.325 92.721 246.325 97.014 C 246.325 97.014 246.325 97.014 246.325 97.014 L 246.325 155.226 C 246.325 155.226 246.325 155.226 246.325 155.226 C 246.325 159.519 246.276 163.803 246.188 168.096 C 246.109 171.918 245.952 175.74 245.735 179.552 C 245.539 182.932 245.263 186.302 244.889 189.672 C 244.565 192.629 244.132 195.576 243.591 198.504 C 243.109 201.078 242.509 203.623 241.761 206.138 C 241.112 208.358 240.306 210.52 239.361 212.632 C 238.506 214.528 237.492 216.356 236.332 218.075 C 235.23 219.706 233.981 221.219 232.594 222.604 C 231.207 223.98 229.692 225.227 228.069 226.318 C 226.338 227.477 224.509 228.489 222.6 229.344 C 220.495 230.297 218.322 231.093 216.099 231.741 C 213.58 232.478 211.023 233.087 208.446 233.559 C 205.515 234.109 202.554 234.541 199.583 234.865 C 196.219 235.229 192.836 235.514 189.452 235.701 C 185.626 235.917 181.8 236.074 177.973 236.153 C 173.675 236.251 169.376 236.29 165.078 236.29 C 165.078 236.29 165.078 236.29 165.068 236.29 L 90.942 236.29 C 90.932 236.29 90.932 236.29 90.932 236.29 C 86.634 236.29 82.335 236.251 78.037 236.153 C 74.21 236.074 70.384 235.917 66.558 235.701 C 63.174 235.514 59.791 235.229 56.427 234.865 C 53.456 234.541 50.495 234.109 47.564 233.559 C 44.987 233.087 42.43 232.478 39.911 231.741 C 37.688 231.093 35.515 230.297 33.41 229.344 C 31.501 228.489 29.672 227.477 27.941 226.318 C 26.318 225.227 24.803 223.98 23.416 222.604 C 22.029 221.219 20.78 219.706 19.678 218.075 C 18.518 216.356 17.504 214.528 16.649 212.632 C 15.704 210.52 14.898 208.358 14.249 206.138 C 13.501 203.623 12.901 201.078 12.419 198.504 C 11.878 195.576 11.445 192.629 11.121 189.672 C 10.747 186.302 10.472 182.932 10.275 179.552 C 10.058 175.74 9.901 171.918 9.822 168.096 C 9.734 163.803 9.685 159.519 9.685 155.226 C 9.685 155.226 9.685 155.226 9.685 155.226 L 9.685 97.014 C 9.685 97.014 9.685 97.014 9.685 97.014 C 9.685 92.721 9.734 88.437 9.822 84.144 C 9.901 80.322 10.058 76.51 10.275 72.688 C 10.472 69.308 10.747 65.938 11.121 62.578 C 11.445 59.611 11.878 56.664 12.419 53.736 C 12.901 51.162 13.501 48.617 14.249 46.102 C 14.898 43.892 15.704 41.72 16.649 39.608 C 17.504 37.712 18.518 35.894 19.678 34.165 C 20.78 32.544 22.029 31.031 23.416 29.646 C 24.803 28.26 26.318 27.013 27.941 25.922 C 29.672 24.763 31.501 23.751 33.41 22.896 C 35.515 21.953 37.688 21.147 39.911 20.499 C 42.43 19.762 44.987 19.153 47.564 18.681 C 50.495 18.131 53.456 17.699 56.427 17.384 C 59.791 17.011 63.174 16.736 66.558 16.539 C 70.384 16.323 74.21 16.176 78.037 16.087 C 82.335 15.999 86.634 15.95 90.932 15.96 C 90.932 15.96 90.932 15.96 90.942 15.96 L 165.068 15.96 C 165.078 15.96 165.078 15.96 165.078 15.96 Z"/>
  </g>
  <g>
   <linearGradient id="_lgradient_106" x1="0" x2="0" y1="0" y2="1" gradientTransform="matrix(8.365,0,0,25.096,69.442,85.846)" gradientUnits="userSpaceOnUse">
    <stop offset="0%" style="stop-color:#fabd2f"/>
    <stop offset="50%" style="stop-color:#fabd2f"/>
    <stop offset="100%" style="stop-color:#fabd2f"/>
   </linearGradient>
   <path fill="url(#_lgradient_106)" d="M 72.23 85.846 C 70.686 85.846 69.442 87.09 69.442 88.635 L 69.442 108.154 C 69.442 109.698 70.686 110.942 72.23 110.942 L 77.807 110.942 L 77.807 85.846 L 72.23 85.846 Z"/>
   <linearGradient id="_lgradient_107" x1="0" x2="0" y1="0" y2="1" gradientTransform="matrix(117.116,0,0,145,69.442,53.5)" gradientUnits="userSpaceOnUse">
    <stop offset="0%" style="stop-color:#665c54"/>
    <stop offset="100%" style="stop-color:#3c3836"/>
   </linearGradient>
   <path fill="url(#_lgradient_107)" d="M 69.442 59.381 L 69.442 92.538 L 75.019 92.538 L 75.019 128.788 L 70.802 128.788 C 70.802 128.788 69.514 128.763 69.442 130.497 L 69.442 191.246 C 69.664 198.206 75.554 198.498 75.554 198.498 L 180.031 198.498 C 180.031 198.498 186.557 198.764 186.557 192.375 L 186.557 115.365 C 186.555 114.799 185.999 114.846 185.999 114.846 L 183.769 114.846 L 183.769 100.904 L 185.714 100.904 C 185.714 100.904 186.576 100.912 186.557 100.045 L 186.557 73.848 C 186.58 72.959 186.033 72.495 186.033 72.495 L 167.441 53.903 C 167.131 53.47 166.354 53.5 166.354 53.5 L 74.997 53.5 C 74.997 53.5 69.442 53.687 69.442 59.381 L 69.442 59.381 Z"/>
   <linearGradient id="_lgradient_108" x1="0" x2="0" y1="0" y2="1" gradientTransform="matrix(99.686,0,0,105.762,78.765,75.914)" gradientUnits="userSpaceOnUse">
    <stop offset="0%" style="stop-color:#ebdbb2"/>
    <stop offset="100%" style="stop-color:#d5c4a1"/>
   </linearGradient>
   <path fill="url(#_lgradient_108)" d="M 82.765 75.914 L 174.45 75.914 C 176.658 75.914 178.45 77.707 178.45 79.914 L 178.45 177.677 C 178.45 179.884 176.658 181.677 174.45 181.677 L 82.765 181.677 C 80.557 181.677 78.765 179.884 78.765 177.677 L 78.765 79.914 C 78.765 77.707 80.557 75.914 82.765 75.914 Z"/>
   <linearGradient id="_lgradient_109" x1="0" x2="0" y1="0" y2="1" gradientTransform="matrix(99.685,0,0,23.348,78.766,75.878)" gradientUnits="userSpaceOnUse">
    <stop offset="0%" style="stop-color:#fb4934"/>
    <stop offset="100%" style="stop-color:#cc241d"/>
   </linearGradient>
   <path fill="url(#_lgradient_109)" d="M 82.377 75.878 C 80.377 75.878 78.766 77.489 78.766 79.489 L 78.766 95.376 C 78.766 95.407 78.777 95.437 78.777 95.468 L 78.766 95.468 L 78.766 99.226 L 178.451 99.226 L 178.451 95.468 L 178.439 95.468 C 178.44 95.437 178.451 95.407 178.451 95.376 L 178.451 79.489 C 178.451 77.489 176.84 75.878 174.84 75.878 L 82.377 75.878 Z"/>
   <path fill="#ebdbb2" fill-rule="evenodd" d="M 171.531 93.311 L 167.479 82.151 L 163.427 93.311 L 171.531 93.311 Z"/>
   <path fill="#bdae93" d="M 126.25 112.336 L 129.75 112.336 C 140.788 112.336 149.75 121.298 149.75 132.336 L 149.75 135.836 C 149.75 146.874 140.788 155.836 129.75 155.836 L 126.25 155.836 C 115.212 155.836 106.25 146.874 106.25 135.836 L 106.25 132.336 C 106.25 121.298 115.212 112.336 126.25 112.336 Z"/>
  </g>
 </g>
</svg>
